storage/app/icons/simpleicons/brands/fillout.svg

<svg xmlns="http://www.w3.org/2000/svg" viewBox="0 0 24 24"><title>Fillout</title><path d="M13.12 10.254c1.439 0 2.166.775 2.166 2.325 0 .735-.224 1.438-.584 1.846-.359.407-.942.623-1.669.623-.704 0-1.223-.192-1.559-.567-.375-.416-.599-1.119-.599-1.91 0-1.534.759-2.317 2.245-2.317m-.016 1.414c-.567 0-.863.368-.863 1.063 0 .751.304 1.174.839 1.174.536 0 .847-.447.847-1.214 0-.679-.271-1.023-.823-1.023m6.956-1.254v4.474h-1.438v-.471c0-.152.008-.192.048-.48h-.048c-.136.392-.231.56-.415.736-.248.247-.592.375-.975.375-.471 0-.887-.192-1.119-.519-.128-.184-.231-.496-.263-.839a21 21 0 0 1-.016-1.095v-2.181h1.502v2.141c0 .719.008.783.096.935.096.152.263.24.471.24.28 0 .504-.16.591-.416.056-.176.064-.255.064-.759v-2.141zM8.813 14.898V8.952H10.3v5.946zm-2.265 0V8.952H8.07v5.946zM0 9.589h3.61v1.334H1.411v.878H3.61v1.238H1.411v1.859H0zm4.303 5.3v-4.427c.272.104.448.136.727.136.272 0 .488-.04.775-.136v4.427zm.734-4.687q-.867 0-.869-.606c0-.192.09-.375.234-.482s.379-.162.671-.162q.423 0 .625.148a.6.6 0 0 1 .241.498c0 .4-.305.604-.902.604m16.597-.625c0 1.134-.399 1.339-1.142 1.339v.88h.743c-.032.471-.04.759-.04 1.215 0 .807.072 1.214.264 1.518.216.335.639.519 1.199.519.575 0 .95-.152 1.342-.543v-1.039c-.24.304-.495.439-.807.439-.192 0-.36-.079-.439-.207-.088-.136-.12-.344-.12-.711 0-.512-.024-1.191-.024-1.191H24V10.41h-1.39v-.833z"/></svg>

<svg role="img" viewBox="0 0 24 24" xmlns="http://www.w3.org/2000/svg"><title>Fillout</title><path d="M13.12 10.254C14.559 10.254 15.286 11.029 15.286 12.579C15.286 13.314 15.062 14.017 14.702 14.425C14.343 14.832 13.76 15.048 13.033 15.048C12.329 15.048 11.81 14.856 11.474 14.481C11.099 14.065 10.875 13.362 10.875 12.571C10.875 11.037 11.634 10.254 13.12 10.254ZM13.104 11.668C12.537 11.668 12.241 12.036 12.241 12.731C12.241 13.482 12.545 13.905 13.08 13.905C13.616 13.905 13.927 13.458 13.927 12.691C13.927 12.012 13.656 11.668 13.104 11.668ZM20.06 10.414V14.888H18.622V14.417C18.622 14.265 18.63 14.225 18.67 13.937H18.622C18.486 14.329 18.391 14.497 18.207 14.673C17.959 14.92 17.615 15.048 17.232 15.048C16.761 15.048 16.345 14.856 16.113 14.529C15.985 14.345 15.882 14.033 15.85 13.69C15.842 13.554 15.834 13.282 15.834 12.595V10.414H17.336V12.555C17.336 13.274 17.344 13.338 17.432 13.49C17.528 13.642 17.695 13.73 17.903 13.73C18.183 13.73 18.407 13.57 18.494 13.314C18.55 13.138 18.558 13.059 18.558 12.555V10.414H20.06ZM8.813 14.898V8.952H10.3V14.898H8.813ZM6.548 14.898V8.952H8.07V14.898H6.548ZM0.0 9.589H3.61V10.923H1.411V11.801H3.61V13.039H1.411V14.898H0.0V9.589ZM4.303 14.889L4.303 10.462C4.575 10.566 4.751 10.598 5.03 10.598C5.302 10.598 5.518 10.558 5.805 10.462L5.805 14.889H4.303ZM5.037 10.202C4.46 10.202 4.168 10 4.168 9.596C4.168 9.404 4.258 9.221 4.402 9.114C4.546 9.008 4.781 8.952 5.073 8.952C5.355 8.952 5.563 9.002 5.698 9.1C5.849 9.208 5.939 9.392 5.939 9.598C5.939 9.998 5.634 10.202 5.037 10.202ZM21.634 9.577C21.634 10.711 21.235 10.916 20.492 10.916V11.796H21.235C21.203 12.267 21.195 12.555 21.195 13.011C21.195 13.818 21.267 14.225 21.459 14.529C21.675 14.864 22.098 15.048 22.658 15.048C23.233 15.048 23.608 14.896 24 14.505V13.466C23.76 13.77 23.505 13.905 23.193 13.905C23.001 13.905 22.833 13.826 22.754 13.698C22.666 13.562 22.634 13.354 22.634 12.987C22.634 12.475 22.61 11.796 22.61 11.796H24V10.41H22.61V9.577H21.634Z"/></svg>
